docs/logo-50.svg

<?xml version="1.0" encoding="UTF-8" standalone="no"?>
<!-- Created with Inkscape (http://www.inkscape.org/) -->

<svg
   xmlns:dc="http://purl.org/dc/elements/1.1/"
   xmlns:cc="http://creativecommons.org/ns#"
   xmlns:rdf="http://www.w3.org/1999/02/22-rdf-syntax-ns#"
   xmlns:svg="http://www.w3.org/2000/svg"
   xmlns="http://www.w3.org/2000/svg"
   xmlns:xlink="http://www.w3.org/1999/xlink"
   xmlns:sodipodi="http://sodipodi.sourceforge.net/DTD/sodipodi-0.dtd"
   xmlns:inkscape="http://www.inkscape.org/namespaces/inkscape"
   width="11.870752mm"
   height="7.6506mm"
   viewBox="0 0 11.870752 7.6506"
   version="1.1"
   id="svg8"
   inkscape:version="0.92.5 (2060ec1f9f, 2020-04-08)"
   sodipodi:docname="nodot-50.svg">
  <defs
     id="defs2">
    <linearGradient
       gradientUnits="userSpaceOnUse"
       y2="21.6471"
       x2="3.9647601"
       y1="0"
       x1="3.9647601"
       id="paint0_linear">
      <stop
         id="stop38"
         stop-color="#023E73" />
      <stop
         id="stop40"
         stop-color="#012840"
         offset="1" />
    </linearGradient>
    <linearGradient
       gradientUnits="userSpaceOnUse"
       y2="29.1667"
       x2="33.7005"
       y1="7.6461"
       x1="33.7005"
       id="paint1_linear"
       gradientTransform="translate(-5.1342361,-0.25094633)">
      <stop
         id="stop43"
         stop-color="#023E73" />
      <stop
         id="stop45"
         stop-color="#012840"
         offset="1" />
    </linearGradient>
    <linearGradient
       gradientUnits="userSpaceOnUse"
       y2="21.6471"
       x2="13.6564"
       y1="0"
       x1="13.6564"
       id="paint2_linear">
      <stop
         id="stop48"
         stop-color="#023E73" />
      <stop
         id="stop50"
         stop-color="#012840"
         offset="1" />
    </linearGradient>
    <linearGradient
       gradientUnits="userSpaceOnUse"
       y2="7.5195298"
       x2="15.859"
       y1="3.4179699"
       x1="15.859"
       id="paint3_linear">
      <stop
         id="stop53"
         stop-color="#023A6B" />
      <stop
         id="stop55"
         stop-color="#013661"
         offset="1" />
    </linearGradient>
    <linearGradient
       gradientUnits="userSpaceOnUse"
       y2="21.6471"
       x2="21.4757"
       y1="9.5703096"
       x1="21.4757"
       id="paint4_linear">
      <stop
         id="stop58"
         stop-color="#F2275D" />
      <stop
         id="stop60"
         stop-color="#BF0436"
         offset="1" />
    </linearGradient>
    <linearGradient
       gradientUnits="userSpaceOnUse"
       y2="7.5195298"
       x2="34.911999"
       y1="3.4179699"
       x1="34.911999"
       id="paint5_linear"
       gradientTransform="translate(-5.1342361,2.1800583e-4)">
      <stop
         id="stop63"
         stop-color="#023B6D" />
      <stop
         id="stop65"
         stop-color="#013661"
         offset="1" />
    </linearGradient>
    <linearGradient
       gradientUnits="userSpaceOnUse"
       y2="21.4193"
       x2="44.493401"
       y1="7.2916899"
       x1="44.493401"
       id="paint10_linear"
       gradientTransform="translate(-5.1342361)">
      <stop
         id="stop88"
         stop-color="#023B6C" />
      <stop
         id="stop90"
         stop-color="#012840"
         offset="1" />
    </linearGradient>
    <linearGradient
       inkscape:collect="always"
       xlink:href="#paint0_linear"
       id="linearGradient138"
       gradientUnits="userSpaceOnUse"
       x1="3.9647601"
       y1="0"
       x2="3.9647601"
       y2="21.6471" />
    <linearGradient
       inkscape:collect="always"
       xlink:href="#paint2_linear"
       id="linearGradient140"
       gradientUnits="userSpaceOnUse"
       x1="13.6564"
       y1="0"
       x2="13.6564"
       y2="21.6471" />
    <linearGradient
       inkscape:collect="always"
       xlink:href="#paint3_linear"
       id="linearGradient142"
       gradientUnits="userSpaceOnUse"
       x1="15.859"
       y1="3.4179699"
       x2="15.859"
       y2="7.5195298" />
    <linearGradient
       inkscape:collect="always"
       xlink:href="#paint4_linear"
       id="linearGradient144"
       gradientUnits="userSpaceOnUse"
       x1="21.4757"
       y1="9.5703096"
       x2="21.4757"
       y2="21.6471" />
    <linearGradient
       inkscape:collect="always"
       xlink:href="#paint0_linear"
       id="linearGradient146"
       gradientUnits="userSpaceOnUse"
       x1="3.9647601"
       y1="0"
       x2="3.9647601"
       y2="21.6471" />
    <linearGradient
       inkscape:collect="always"
       xlink:href="#paint2_linear"
       id="linearGradient148"
       gradientUnits="userSpaceOnUse"
       x1="13.6564"
       y1="0"
       x2="13.6564"
       y2="21.6471" />
    <linearGradient
       inkscape:collect="always"
       xlink:href="#paint3_linear"
       id="linearGradient150"
       gradientUnits="userSpaceOnUse"
       x1="15.859"
       y1="3.4179699"
       x2="15.859"
       y2="7.5195298" />
    <linearGradient
       inkscape:collect="always"
       xlink:href="#paint4_linear"
       id="linearGradient152"
       gradientUnits="userSpaceOnUse"
       x1="21.4757"
       y1="9.5703096"
       x2="21.4757"
       y2="21.6471" />
  </defs>
  <sodipodi:namedview
     id="base"
     pagecolor="#ffffff"
     bordercolor="#666666"
     borderopacity="1.0"
     inkscape:pageopacity="0.0"
     inkscape:pageshadow="2"
     inkscape:zoom="16"
     inkscape:cx="22.766097"
     inkscape:cy="9.5807383"
     inkscape:document-units="mm"
     inkscape:current-layer="g136"
     showgrid="false"
     inkscape:window-width="1920"
     inkscape:window-height="1043"
     inkscape:window-x="0"
     inkscape:window-y="0"
     inkscape:window-maximized="1" />
  <metadata
     id="metadata5">
    <rdf:RDF>
      <cc:Work
         rdf:about="">
        <dc:format>image/svg+xml</dc:format>
        <dc:type
           rdf:resource="http://purl.org/dc/dcmitype/StillImage" />
        <dc:title></dc:title>
      </cc:Work>
    </rdf:RDF>
  </metadata>
  <g
     inkscape:label="Layer 1"
     inkscape:groupmode="layer"
     id="layer1"
     transform="translate(-81.831836,-164.4784)">
    <g
       style="fill:none"
       id="g136"
       transform="matrix(0.26458333,0,0,0.26458333,81.831836,164.4784)">
      <path
         id="path10"
         d="M 6.73712e-5,17.0414 V 1 C 6.73712e-5,0.447715 0.447782,0 1.00007,0 h 3.2863 c 0.55228,0 1,0.447519 1,0.999803 V 16.1202 c 0,0.7369 0.58736,0.9212 0.88105,0.9212 h 0.7621 c 0.55228,0 1,0.4477 1,1 v 2.7698 c 0,0.3723 -0.22373,0.6743 -0.594,0.713 -0.60762,0.0634 -1.75396,0.1229 -3.81125,0.1229 -3.5856164,0 -3.5242026288,-3.224 -3.5242026288,-4.6057 z"
         inkscape:connector-curvature="0"
         style="fill:url(#linearGradient138)" />
      <path
         id="path12"
         d="m 32.530965,24.336854 v -13.7896 c 0,-0.5523005 -0.4477,-1.0000407 -1,-1.0000407 h -3.2863 c -0.5523,0 -1,0.4474402 -1,0.9997407 v 12.8741 c 0,0.7327 -0.5873,0.9158 -0.881,0.9158 h -0.7621 c -0.5523,0 -1,0.4477 -1,1 v 2.7426 c 0,0.3732 0.2245,0.6757 0.5957,0.7142 0.608,0.063 1.7541,0.122 3.8095,0.122 3.5856,0 3.5242,-3.2051 3.5242,-4.5788 z"
         inkscape:connector-curvature="0"
         style="fill:url(#paint1_linear)" />
      <path
         id="path14"
         d="M 9.69172,17.0414 V 1 c 0,-0.552285 0.44768,-1 0.99998,-1 h 3.2863 c 0.5523,0 1,0.447519 1,0.999803 V 16.1202 c 0,0.7369 0.5874,0.9212 0.8811,0.9212 h 0.7621 c 0.5523,0 1,0.4477 1,1 v 2.7698 c 0,0.3723 -0.2238,0.6743 -0.594,0.713 -0.6077,0.0634 -1.754,0.1229 -3.8113,0.1229 -3.5856,0 -3.52418,-3.224 -3.52418,-4.6057 z"
         inkscape:connector-curvature="0"
         style="fill:url(#linearGradient140)" />
      <path
         id="path16"
         d="M 24.1101,7.51953 H 7.60791 c -0.55228,0 -1,-0.44771 -1,-1 V 4.41797 c 0,-0.55229 0.44772,-1 1,-1 H 24.1101 c 0.5523,0 1,0.44771 1,1 v 2.10156 c 0,0.55229 -0.4477,1 -1,1 z"
         inkscape:connector-curvature="0"
         style="fill:url(#linearGradient142)" />
      <path
         id="path18"
         d="m 24.11,9.57031 h -5.2687 c -0.5523,0 -1,0.44769 -1,0.99999 v 2.0261 c 0,0.5474 0.4438,0.9912 0.9912,0.9912 0.5474,0 0.9912,0.4437 0.9912,0.9911 v 6.0684 c 0,0.5523 0.4477,1 1,1 H 24.11 c 0.5523,0 1,-0.4477 1,-1 V 10.5703 c 0,-0.5523 -0.4477,-0.99999 -1,-0.99999 z"
         inkscape:connector-curvature="0"
         style="fill:url(#linearGradient144)" />
      <rect
         id="rect20"
         rx="1"
         height="4.1015601"
         width="5.2863402"
         y="3.4179699"
         x="19.8237"
         style="fill:#f2275d" />
      <rect
         id="rect22"
         rx="1"
         height="4.1015601"
         width="5.5066099"
         y="3.4181881"
         x="27.024466"
         style="fill:url(#paint5_linear)" />
      <path
         style="fill:url(#linearGradient146)"
         id="path26"
         d="M 6.73712e-5,17.0414 V 1 C 6.73712e-5,0.447715 0.447782,0 1.00007,0 h 3.2863 c 0.55228,0 1,0.447519 1,0.999803 V 16.1202 c 0,0.7369 0.58736,0.9212 0.88105,0.9212 h 0.7621 c 0.55228,0 1,0.4477 1,1 v 2.7698 c 0,0.3723 -0.22373,0.6743 -0.594,0.713 -0.60762,0.0634 -1.75396,0.1229 -3.81125,0.1229 -3.5856164,0 -3.5242026288,-3.224 -3.5242026288,-4.6057 z"
         inkscape:connector-curvature="0" />
      <path
         style="fill:url(#linearGradient148)"
         id="path28"
         d="M 9.69172,17.0414 V 1 c 0,-0.552285 0.44768,-1 0.99998,-1 h 3.2863 c 0.5523,0 1,0.447519 1,0.999803 V 16.1202 c 0,0.7369 0.5874,0.9212 0.8811,0.9212 h 0.7621 c 0.5523,0 1,0.4477 1,1 v 2.7698 c 0,0.3723 -0.2238,0.6743 -0.594,0.713 -0.6077,0.0634 -1.754,0.1229 -3.8113,0.1229 -3.5856,0 -3.52418,-3.224 -3.52418,-4.6057 z"
         inkscape:connector-curvature="0" />
      <path
         style="fill:url(#linearGradient150)"
         id="path30"
         d="M 23.1101,7.51953 H 8.60791 c -1.10457,0 -2,-0.89543 -2,-2 V 5.41797 c 0,-1.10457 0.89543,-2 2,-2 H 23.1101 c 1.1046,0 2,0.89543 2,2 v 0.10156 c 0,1.10457 -0.8954,2 -2,2 z"
         inkscape:connector-curvature="0" />
      <path
         style="fill:url(#linearGradient152)"
         id="path32"
         d="m 24.11,9.57031 h -5.2687 c -0.5523,0 -1,0.44769 -1,0.99999 v 2.0261 c 0,0.5474 0.4438,0.9912 0.9912,0.9912 0.5474,0 0.9912,0.4437 0.9912,0.9911 v 6.0684 c 0,0.5523 0.4477,1 1,1 H 24.11 c 0.5523,0 1,-0.4477 1,-1 V 10.5703 c 0,-0.5523 -0.4477,-0.99999 -1,-0.99999 z"
         inkscape:connector-curvature="0" />
      <path
         id="path34"
         d="m 19.8237,3.55028 c 0,-0.07307 0.0593,-0.13231 0.1323,-0.13231 h 3.9822 c 0.6472,0 1.1719,0.52467 1.1719,1.17187 v 2.1745 c 0,0.41708 -0.3381,0.75519 -0.7552,0.75519 H 23.793 c -2.1922,0 -3.9693,-1.77709 -3.9693,-3.96925 z"
         inkscape:connector-curvature="0"
         style="fill:#f2275d" />
      <path
         id="path36"
         d="m 37.115165,7.29169 h 5.9657 c 0.5523,0 1,0.44771 1,1 v 1.34485 c 0,0.55226 -0.4477,0.99996 -1,0.99996 h -5.1214 c -0.9368,0 -0.8443,1.9805 0,1.9805 h 4.5303 c 3.3519,0 2.9788,8.8023 0,8.8023 h -7.1473 c -0.5523,0 -1,-0.4477 -1,-1 v -1.4329 c 0,-0.5523 0.4472,-1 0.9995,-1 h 5.1874 c 0.9367,0 0.9028,-2.2702 0,-2.2702 h -3.4142 c -4.468,0 -4.2306,-8.42451 0,-8.42451 z"
         inkscape:connector-curvature="0"
         style="fill:url(#paint10_linear)" />
      <rect
         id="rect154"
         width="16.882174"
         height="38.448933"
         x="30.390741"
         y="0.50260925"
         rx="1" />
    </g>
  </g>
</svg>

<svg width="50" height="30" viewBox="0 0 50 30" fill="none" xmlns="http://www.w3.org/2000/svg">
<path d="M6.73712e-05 17.0414V1C6.73712e-05 0.447715 0.447782 0 1.00007 0H4.28637C4.83865 0 5.28637 0.447519 5.28637 0.999803V16.1202C5.28637 16.8571 5.87373 17.0414 6.16742 17.0414H6.92952C7.4818 17.0414 7.92952 17.4891 7.92952 18.0414V20.8112C7.92952 21.1835 7.70579 21.4855 7.33552 21.5242C6.7279 21.5876 5.58156 21.6471 3.52427 21.6471C-0.0613464 21.6471 6.73712e-05 18.4231 6.73712e-05 17.0414Z" fill="url(#paint0_linear)"/>
<path d="M37.6652 24.5878L37.6652 10.7982C37.6652 10.2459 37.2175 9.79816 36.6652 9.79816H33.3789C32.8266 9.79816 32.3789 10.2456 32.3789 10.7979V23.672C32.3789 24.4047 31.7916 24.5878 31.4979 24.5878H30.7358C30.1835 24.5878 29.7358 25.0355 29.7358 25.5878V28.3304C29.7358 28.7036 29.9603 29.0061 30.3315 29.0446C30.9395 29.1076 32.0856 29.1666 34.141 29.1666C37.7266 29.1666 37.6652 25.9615 37.6652 24.5878Z" fill="url(#paint1_linear)"/>
<path d="M9.69172 17.0414V1C9.69172 0.447715 10.1394 0 10.6917 0H13.978C14.5303 0 14.978 0.447519 14.978 0.999803V16.1202C14.978 16.8571 15.5654 17.0414 15.8591 17.0414H16.6212C17.1735 17.0414 17.6212 17.4891 17.6212 18.0414V20.8112C17.6212 21.1835 17.3974 21.4855 17.0272 21.5242C16.4195 21.5876 15.2732 21.6471 13.2159 21.6471C9.6303 21.6471 9.69172 18.4231 9.69172 17.0414Z" fill="url(#paint2_linear)"/>
<path d="M24.1101 7.51953H7.60791C7.05563 7.51953 6.60791 7.07182 6.60791 6.51953V4.41797C6.60791 3.86568 7.05563 3.41797 7.60791 3.41797H24.1101C24.6624 3.41797 25.1101 3.86568 25.1101 4.41797V6.51953C25.1101 7.07182 24.6624 7.51953 24.1101 7.51953Z" fill="url(#paint3_linear)"/>
<path d="M24.11 9.57031H18.8413C18.289 9.57031 17.8413 10.018 17.8413 10.5703V12.5964C17.8413 13.1438 18.2851 13.5876 18.8325 13.5876C19.3799 13.5876 19.8237 14.0313 19.8237 14.5787V20.6471C19.8237 21.1994 20.2714 21.6471 20.8237 21.6471H24.11C24.6623 21.6471 25.11 21.1994 25.11 20.6471V10.5703C25.11 10.018 24.6623 9.57031 24.11 9.57031Z" fill="url(#paint4_linear)"/>
<rect x="19.8237" y="3.41797" width="5.28634" height="4.10156" rx="1" fill="#F2275D"/>
<rect x="32.1587" y="3.41797" width="5.50661" height="4.10156" rx="1" fill="url(#paint5_linear)"/>
<rect x="26.6519" y="17.3177" width="4.18502" height="4.10156" rx="1" fill="#012C4A"/>
<path d="M6.73712e-05 17.0414V1C6.73712e-05 0.447715 0.447782 0 1.00007 0H4.28637C4.83865 0 5.28637 0.447519 5.28637 0.999803V16.1202C5.28637 16.8571 5.87373 17.0414 6.16742 17.0414H6.92952C7.4818 17.0414 7.92952 17.4891 7.92952 18.0414V20.8112C7.92952 21.1835 7.70579 21.4855 7.33552 21.5242C6.7279 21.5876 5.58156 21.6471 3.52427 21.6471C-0.0613464 21.6471 6.73712e-05 18.4231 6.73712e-05 17.0414Z" fill="url(#paint6_linear)"/>
<path d="M9.69172 17.0414V1C9.69172 0.447715 10.1394 0 10.6917 0H13.978C14.5303 0 14.978 0.447519 14.978 0.999803V16.1202C14.978 16.8571 15.5654 17.0414 15.8591 17.0414H16.6212C17.1735 17.0414 17.6212 17.4891 17.6212 18.0414V20.8112C17.6212 21.1835 17.3974 21.4855 17.0272 21.5242C16.4195 21.5876 15.2732 21.6471 13.2159 21.6471C9.6303 21.6471 9.69172 18.4231 9.69172 17.0414Z" fill="url(#paint7_linear)"/>
<path d="M23.1101 7.51953H8.60791C7.50334 7.51953 6.60791 6.6241 6.60791 5.51953V5.41797C6.60791 4.3134 7.50334 3.41797 8.60791 3.41797H23.1101C24.2147 3.41797 25.1101 4.3134 25.1101 5.41797V5.51953C25.1101 6.6241 24.2147 7.51953 23.1101 7.51953Z" fill="url(#paint8_linear)"/>
<path d="M24.11 9.57031H18.8413C18.289 9.57031 17.8413 10.018 17.8413 10.5703V12.5964C17.8413 13.1438 18.2851 13.5876 18.8325 13.5876C19.3799 13.5876 19.8237 14.0313 19.8237 14.5787V20.6471C19.8237 21.1994 20.2714 21.6471 20.8237 21.6471H24.11C24.6623 21.6471 25.11 21.1994 25.11 20.6471V10.5703C25.11 10.018 24.6623 9.57031 24.11 9.57031Z" fill="url(#paint9_linear)"/>
<path d="M19.8237 3.55028C19.8237 3.47721 19.883 3.41797 19.956 3.41797H23.9382C24.5854 3.41797 25.1101 3.94264 25.1101 4.58984V6.76434C25.1101 7.18142 24.772 7.51953 24.3549 7.51953H23.793C21.6008 7.51953 19.8237 5.74244 19.8237 3.55028V3.55028Z" fill="#F2275D"/>
<path d="M42.2494 7.29169H48.2151C48.7674 7.29169 49.2151 7.7394 49.2151 8.29169V9.63654C49.2151 10.1888 48.7674 10.6365 48.2151 10.6365H43.0937C42.1569 10.6365 42.2494 12.617 43.0937 12.617H47.624C50.9759 12.617 50.6028 21.4193 47.624 21.4193H40.4767C39.9244 21.4193 39.4767 20.9716 39.4767 20.4193V18.9864C39.4767 18.4341 39.9239 17.9864 40.4762 17.9864H45.6636C46.6003 17.9864 46.5664 15.7162 45.6636 15.7162H42.2494C37.7814 15.7162 38.0188 7.29169 42.2494 7.29169Z" fill="url(#paint10_linear)"/>
<defs>
<linearGradient id="paint0_linear" x1="3.96476" y1="0" x2="3.96476" y2="21.6471" gradientUnits="userSpaceOnUse">
<stop stop-color="#023E73"/>
<stop offset="1" stop-color="#012840"/>
</linearGradient>
<linearGradient id="paint1_linear" x1="33.7005" y1="7.6461" x2="33.7005" y2="29.1667" gradientUnits="userSpaceOnUse">
<stop stop-color="#023E73"/>
<stop offset="1" stop-color="#012840"/>
</linearGradient>
<linearGradient id="paint2_linear" x1="13.6564" y1="0" x2="13.6564" y2="21.6471" gradientUnits="userSpaceOnUse">
<stop stop-color="#023E73"/>
<stop offset="1" stop-color="#012840"/>
</linearGradient>
<linearGradient id="paint3_linear" x1="15.859" y1="3.41797" x2="15.859" y2="7.51953" gradientUnits="userSpaceOnUse">
<stop stop-color="#023A6B"/>
<stop offset="1" stop-color="#013661"/>
</linearGradient>
<linearGradient id="paint4_linear" x1="21.4757" y1="9.57031" x2="21.4757" y2="21.6471" gradientUnits="userSpaceOnUse">
<stop stop-color="#F2275D"/>
<stop offset="1" stop-color="#BF0436"/>
</linearGradient>
<linearGradient id="paint5_linear" x1="34.912" y1="3.41797" x2="34.912" y2="7.51953" gradientUnits="userSpaceOnUse">
<stop stop-color="#023B6D"/>
<stop offset="1" stop-color="#013661"/>
</linearGradient>
<linearGradient id="paint6_linear" x1="3.96476" y1="0" x2="3.96476" y2="21.6471" gradientUnits="userSpaceOnUse">
<stop stop-color="#023E73"/>
<stop offset="1" stop-color="#012840"/>
</linearGradient>
<linearGradient id="paint7_linear" x1="13.6564" y1="0" x2="13.6564" y2="21.6471" gradientUnits="userSpaceOnUse">
<stop stop-color="#023E73"/>
<stop offset="1" stop-color="#012840"/>
</linearGradient>
<linearGradient id="paint8_linear" x1="15.859" y1="3.41797" x2="15.859" y2="7.51953" gradientUnits="userSpaceOnUse">
<stop stop-color="#023A6B"/>
<stop offset="1" stop-color="#013661"/>
</linearGradient>
<linearGradient id="paint9_linear" x1="21.4757" y1="9.57031" x2="21.4757" y2="21.6471" gradientUnits="userSpaceOnUse">
<stop stop-color="#F2275D"/>
<stop offset="1" stop-color="#BF0436"/>
</linearGradient>
<linearGradient id="paint10_linear" x1="44.4934" y1="7.29169" x2="44.4934" y2="21.4193" gradientUnits="userSpaceOnUse">
<stop stop-color="#023B6C"/>
<stop offset="1" stop-color="#012840"/>
</linearGradient>
</defs>
</svg>
